X: 340
T: A Rosebud By My Early Walk
R: strathspey
M: 4/4
K: Gminor
A|A<G G>A G>A d>A|A<F F>G F>G {F}AG/F/|D>G G>A G>A dc/d/|
fd/f/ d/c/B/A/ G2 G:|G|G<G g>a g>f g>a|fd/f/ d/c/B/A/ F>G AG/F/|
D<G g>a g>f g>a|fd/f/ d/c/B/A/ G2 G z/G/|G>G g>a g>f g>a|
fd/f/ d/c/B/A/ F>G AG/F/|GD/G/ BG/B/ cB/c/ dB/d/|fd/f/ d/c/B/A/ {A}G2 G||

